X: 14
T: Boys Of The Lough, The
Z: gmaner
S: https://thesession.org/tunes/343#setting47684
R: reel
M: 4/4
L: 1/8
K: Dmaj
FG|:AF (3FFF AFAB|defd efdB|AF (3FFF dF (3FFF|EDEF E2FG|
AF (3FFF AFAB|defd efdB|AF (3FFF dF (3FFF|1 EDEF D2FG:|2 EDEF D2fg||
abaf gfec|defd efdB|AF (3FFF dF (3FFF|EDEF E2fg|
abaf gfec|defd efdB|AF (3FFF dF (3FFF|EDEF D2fg|
abaf gfec|defd efdB|AF (3FFF dF (3FFF|EDEF E2FG|
AF (3FFF AFAB|defd efdB|AF (3FFF dF (3FFF|EDEF D2||

